X:27
T:The Golden Eagle
Z:Gwen 2022-01-06 d'après la leçon OAIM de Cillian O'Dallaigh
M:4/4
R:Hornpipe
Q:1/2=70
K:G
|: GB,DG BDGB | dGBd gbag | fed^c =cAFD | GBAG (3 FED (3 cBA |
   GB,DG BDGB | dGBd gbag | fed^c =cAFD |1 G/G/GGF G2c/B/A :|2 G/G/GGF G2b/b/b |
|: bB^df bagf | e^def gfg^g | aA^ce agfe | edd^c d2ab |
   c'afd ^cdef | gfga bgag | fed^c =cAFD |1 G/G/GGF G2b/b/b :|2 G/G/GGF G2c/B/A |

